svgs/thin/subscript.svg

<svg xmlns="http://www.w3.org/2000/svg" viewBox="0 0 512 512"><!--! Font Awesome Pro 6.0.0-alpha3 by @fontawesome - https://fontawesome.com License - https://fontawesome.com/license (Commercial License) --><path d="M344 80C348.4 80 352 76.42 352 72S348.4 64 344 64L320 64.01c-2.453 0-4.781 1.115-6.297 3.053L176 243L38.3 67.06C36.78 65.13 34.45 64.01 32 64.01L8 64C3.578 64 0 67.58 0 72S3.578 80 8 80h20.11L165.8 256L28.11 432H8C3.578 432 0 435.6 0 440S3.578 448 8 448L32 448c2.453 0 4.781-1.135 6.297-3.072L176 268.1l137.7 175.1C315.2 446.9 317.5 448 320 448L344 448c4.422 0 8-3.578 8-8s-3.578-8-8-8h-20.11L186.2 256l137.7-176H344zM488 496H464v-136c0-4.422-3.578-8-8-8h-32C419.6 352 416 355.6 416 360s3.578 8 8 8H448v128h-24c-4.422 0-8 3.578-8 8S419.6 512 424 512h64c4.422 0 8-3.578 8-8S492.4 496 488 496z"/></svg>

<svg xmlns="http://www.w3.org/2000/svg" viewBox="0 0 512 512"><!-- Font Awesome Pro 6.0.0-alpha2 by @fontawesome - https://fontawesome.com License - https://fontawesome.com/license (Commercial License) --><path d="M344 80C348.422 80 352 76.422 352 72S348.422 64 344 64H320C317.547 64 315.219 65.125 313.703 67.062L176 243.021L38.297 67.062C36.781 65.125 34.453 64 32 64H8C3.578 64 0 67.578 0 72S3.578 80 8 80H28.109L165.844 256L28.109 432H8C3.578 432 0 435.578 0 440S3.578 448 8 448H32C34.453 448 36.781 446.875 38.297 444.938L176 268.979L313.703 444.938C315.219 446.875 317.547 448 320 448H344C348.422 448 352 444.422 352 440S348.422 432 344 432H323.891L186.156 256L323.891 80H344ZM488 496H464V360C464 355.578 460.422 352 456 352H424C419.578 352 416 355.578 416 360S419.578 368 424 368H448V496H424C419.578 496 416 499.578 416 504S419.578 512 424 512H488C492.422 512 496 508.422 496 504S492.422 496 488 496Z"/></svg>
